X: 1503
T: Andy De Jarlis'
R: jig
M: 6/8
K: Dmajor
|:(DFA) (DFA)|(DFA) (B2 A)|(DFA) (DFA)|GFG A2G|
(DFA) (DFA)|(DFA) (B2 g)|~fed ABc|1 ded d2 z:|2 ded d2e||
|:fef def|gfg B3|efe e2d|cBA a2g|
fef def|gfg B2g|fed ABc|ded d2 z:|

